Collapse/img/countries/flag_russia.svg

<svg width="21" height="20" viewBox="0 0 21 20" fill="none" xmlns="http://www.w3.org/2000/svg">
<g clip-path="url(#clip0_684_14605)">
<path d="M10.5 20C16.0228 20 20.5 15.5228 20.5 10C20.5 4.47715 16.0228 0 10.5 0C4.97715 0 0.5 4.47715 0.5 10C0.5 15.5228 4.97715 20 10.5 20Z" fill="#F0F0F0"/>
<path d="M19.878 13.4782C20.28 12.3949 20.5 11.2232 20.5 9.99997C20.5 8.77677 20.28 7.60505 19.878 6.52173H1.12199C0.720039 7.60505 0.5 8.77677 0.5 9.99997C0.5 11.2232 0.720039 12.3949 1.12199 13.4782L10.5 14.3478L19.878 13.4782Z" fill="#0052B4"/>
<path d="M10.5001 20C14.7997 20 18.4652 17.2863 19.8781 13.4783H1.12207C2.535 17.2863 6.20043 20 10.5001 20Z" fill="#D80027"/>
</g>
<defs>
<clipPath id="clip0_684_14605">
<rect width="20" height="20" fill="white" transform="translate(0.5)"/>
</clipPath>
</defs>
</svg>

<svg width="21" height="20" fill="none" xmlns="http://www.w3.org/2000/svg"><g clip-path="url(#clip0_684_14605)"><path d="M10.5 20c5.523 0 10-4.477 10-10s-4.477-10-10-10S.5 4.477.5 10s4.477 10 10 10z" fill="#F0F0F0"/><path d="M19.878 13.478A9.977 9.977 0 0020.5 10c0-1.223-.22-2.395-.622-3.478H1.122A9.979 9.979 0 00.5 10c0 1.223.22 2.395.622 3.478l9.378.87 9.378-.87z" fill="#0052B4"/><path d="M10.5 20c4.3 0 7.965-2.714 9.378-6.522H1.122A10.004 10.004 0 0010.5 20z" fill="#D80027"/></g><defs><clipPath id="clip0_684_14605"><path fill="#fff" transform="translate(.5)" d="M0 0h20v20H0z"/></clipPath></defs></svg>
